src/images/logos/ibm.svg

<svg width="24" height="24" xmlns="http://www.w3.org/2000/svg" fill="#000000" role="img">
 <title>IBM icon</title>

 <g>
  <title>Layer 1</title>
  <path d="m0,16.144l4.667,0l0,0.668l-4.667,0l0,-0.668zm0,-1.282l4.667,0l0,0.67l-4.667,0l0,-0.67zm1.33,-1.279l2.003,0l0,0.671l-2.003,0l0,-0.671zm0,-1.278l2.003,0l0,0.67l-2.003,0l0,-0.67zm0,-1.28l2.003,0l0,0.671l-2.003,0l0,-0.671zm0,-1.281l2.003,0l0,0.671l-2.003,0l0,-0.671zm-1.33,-1.278l4.667,0l0,0.67l-4.667,0l0,-0.67zm0,-1.279l4.667,0l0,0.67l-4.667,0l0,-0.67zm5.332,8.345l7.177,0c0.12,-0.206 0.212,-0.433 0.267,-0.67l-7.443,0l0,0.67l-0.001,0zm6.618,-3.227l-5.283,0l0,0.67l5.843,0a2.67,2.67 0 0 0 -0.558,-0.67l-0.002,0zm-5.284,-1.28l0,0.671l5.285,0c0.223,-0.188 0.41,-0.414 0.559,-0.671l-5.844,0zm5.843,-2.559l-7.177,0l0,0.67l7.443,0a2.891,2.891 0 0 0 -0.266,-0.67zm-2.206,-1.279l-4.971,0l0,0.67l6.685,0a2.522,2.522 0 0 0 -1.714,-0.67zm-3.637,2.557l2,0l0,0.671l-2,0l0,-0.671zm4.001,0.671l2.092,0c0.059,-0.214 0.09,-0.44 0.09,-0.671l-2.182,0l0,0.671zm-4.001,3.168l1.999,0l0,0.671l-2,0l0.001,-0.671zm4.001,0l0,0.671l2.182,0c0,-0.23 -0.031,-0.457 -0.09,-0.671l-2.092,0zm-5.335,3.224l4.97,0.007c0.667,0 1.268,-0.257 1.717,-0.67l-6.687,0l0,0.663zm8.002,-0.663l3.332,0l0,0.668l-3.332,0l0,-0.668zm0,-1.282l3.332,0l0,0.67l-3.332,0l0,-0.67zm1.331,-1.279l2,0l0,0.671l-2,0l0,-0.671zm0,-1.278l2,0l0,0.67l-2,0l0,-0.67zm2.929,-3.839l-4.26,0l0,0.67l4.49,0l-0.23,-0.67zm-0.442,-1.279l-3.818,0l0,0.669l4.048,0l-0.23,-0.669zm3.513,8.957l3.335,0l0,0.668l-3.335,0l0,-0.668zm0,-1.282l3.335,0l0,0.67l-3.335,0l0,-0.67zm0,-1.279l2,0l0,0.671l-2,0l0,-0.671zm0,-1.278l2,0l0,0.67l-2,0l0,-0.67zm0,-0.609l2,0l0,-0.671l-3.811,0l-0.188,0.542l-0.188,-0.542l-3.813,0l0,0.671l2,0l0,-0.616l0.213,0.616l3.575,0l0.212,-0.616l0,0.616zm2.001,-1.952l-3.37,0l-0.23,0.671l3.6,0l0,-0.671zm-2.483,-2.557l-0.231,0.669l4.048,0l0,-0.669l-3.817,0zm-1.517,9.62l0.23,-0.663l-0.461,0l0.231,0.663zm-0.442,-1.275l0.884,0l0.238,-0.67l-1.357,0l0.235,0.67zm-0.449,-1.278l1.782,0l0.235,-0.671l-2.253,0l0.236,0.671zm-0.448,-1.279l2.679,0l0.229,-0.67l-3.138,0l0.23,0.67zm-2.662,-2.56l3.602,0l-0.231,-0.671l-3.371,0l0,0.671zm4.845,-1.279l4.49,0l0,-0.67l-4.262,0l-0.228,0.67z" id="svg_1" fill="#000000"/>
 </g>
</svg>

<?xml version="1.0" encoding="utf-8"?><!-- Uploaded to: SVG Repo, www.svgrepo.com, Generator: SVG Repo Mixer Tools -->
<svg fill="#000000" width="800px" height="800px" viewBox="0 0 24 24" xmlns="http://www.w3.org/2000/svg" role="img"><title>IBM icon</title><path d="M0 16.144h4.667v.668H0zM0 14.862h4.667v.67H0zM1.33 13.583h2.003v.671H1.33zM1.33 12.305h2.003v.67H1.33zM1.33 11.025h2.003v.671H1.33zM1.33 9.744h2.003v.671H1.33zM0 8.466h4.667v.67H0zM0 7.187h4.667v.67H0zM5.332 15.532h7.177c.12-.206.212-.433.267-.67H5.333v.67zM11.95 12.305H6.667v.67h5.843a2.67 2.67 0 00-.558-.67zM6.666 11.025v.671h5.285c.223-.188.41-.414.559-.671H6.666zM12.509 8.466H5.332v.67h7.443a2.891 2.891 0 00-.266-.67zM10.303 7.187H5.332v.67h6.685a2.522 2.522 0 00-1.714-.67zM6.666 9.744h2v.671h-2zM10.667 10.415h2.092c.059-.214.09-.44.09-.671h-2.182v.671zM6.666 13.583h1.999v.671h-2zM10.667 13.583v.671h2.182c0-.23-.031-.457-.09-.671h-2.092zM5.332 16.807l4.97.007c.667 0 1.268-.257 1.717-.67H5.332v.663zM13.334 16.144h3.332v.668h-3.332zM13.334 14.862h3.332v.67h-3.332zM14.665 13.583h2v.671h-2zM14.665 12.305h2v.67h-2zM17.594 8.466h-4.26v.67h4.49zM17.152 7.187h-3.818v.669h4.048zM20.665 16.144H24v.668h-3.335zM20.665 14.862H24v.67h-3.335zM20.665 13.583h2v.671h-2zM20.665 12.305h2v.67h-2zM20.665 11.696h2v-.671h-3.811l-.188.542-.188-.542H14.665v.671h2v-.616l.213.616h3.575l.212-.616zM22.666 9.744h-3.37l-.23.671h3.6zM20.183 7.187l-.231.669H24v-.669zM18.666 16.807l.23-.663h-.461zM18.224 15.532h.884l.238-.67h-1.357zM17.775 14.254h1.782l.235-.671h-2.253zM17.327 12.975h2.679l.229-.67h-3.138zM14.665 10.415h3.602l-.231-.671h-3.371zM19.51 9.136H24v-.67h-4.262z"/></svg>
